dist/img/village.svg

<svg width="100" height="100" viewBox="0 0 100 100" fill="none" xmlns="http://www.w3.org/2000/svg">
<path d="M30.2429 63.3096C26.1337 63.3096 22.7905 59.9664 22.7905 55.8572C22.7905 51.748 26.1337 48.4048 30.2429 48.4048C34.3521 48.4048 37.6953 51.748 37.6953 55.8572C37.6953 59.9664 34.3521 63.3096 30.2429 63.3096ZM30.2429 52.311C28.2875 52.311 26.6968 53.9018 26.6968 55.8572C26.6968 57.8126 28.2875 59.4033 30.2429 59.4033C32.1983 59.4033 33.7891 57.8126 33.7891 55.8572C33.7891 53.9018 32.1983 52.311 30.2429 52.311Z" fill="black"/>
<path d="M85.6956 81.6589C85.5681 81.6589 85.4392 81.6466 85.3141 81.6215C85.1897 81.5963 85.0661 81.5589 84.9494 81.5101C84.8296 81.4613 84.7167 81.401 84.6114 81.33C84.5038 81.2583 84.4039 81.1782 84.3146 81.0882C84.2246 80.9966 84.1422 80.8967 84.072 80.7891C84.0018 80.6838 83.9416 80.5709 83.8927 80.4534C83.8439 80.3344 83.8065 80.2131 83.7813 80.088C83.7554 79.9613 83.7424 79.8347 83.7424 79.7057C83.7424 79.5783 83.7554 79.4494 83.7813 79.3243C83.8065 79.1999 83.8439 79.0763 83.8927 78.9596C83.9416 78.8421 84.0018 78.7269 84.072 78.6216C84.1422 78.514 84.2246 78.4141 84.3146 78.3248C84.4039 78.2348 84.5038 78.1524 84.6114 78.0822C84.7167 78.012 84.8296 77.9517 84.9494 77.9029C85.0661 77.8541 85.1897 77.8167 85.3141 77.7915C85.5666 77.7404 85.826 77.7404 86.0778 77.7915C86.2029 77.8167 86.3242 77.8541 86.4432 77.9029C86.5607 77.9517 86.6736 78.012 86.7789 78.0822C86.8865 78.1524 86.9865 78.2348 87.0757 78.3248C87.168 78.4141 87.2481 78.514 87.3199 78.6216C87.3908 78.7269 87.4511 78.8421 87.4999 78.9596C87.5487 79.0763 87.5861 79.1999 87.6113 79.3243C87.6365 79.4494 87.6487 79.5783 87.6487 79.7057C87.6487 79.8347 87.6365 79.9613 87.6113 80.088C87.5861 80.2131 87.5487 80.3344 87.4999 80.4534C87.4511 80.5709 87.3908 80.6838 87.3199 80.7891C87.2481 80.8967 87.168 80.9966 87.0757 81.0882C86.9857 81.1782 86.8865 81.2583 86.7789 81.33C86.6736 81.401 86.5607 81.4613 86.4432 81.5101C86.3242 81.5589 86.2029 81.5963 86.0778 81.6215C85.9511 81.6466 85.8245 81.6589 85.6956 81.6589Z" fill="black"/>
<path d="M98.5565 11.8439C94.2421 10.6766 90.4877 10.1562 86.3831 10.1562C71.8872 10.1562 64.6164 16.716 57.5851 23.0598C54.6913 25.6706 51.9409 28.1517 48.7083 30.1956C43.6752 25.9933 37.2536 21.8307 26.2794 21.8307C13.755 21.8307 7.13043 27.1973 0.724029 32.3868C0.266266 32.7576 0 33.3153 0 33.905V87.8914C0 88.9702 0.874328 89.8445 1.95312 89.8445H98.0469C99.1257 89.8445 100 88.9702 100 87.8914V13.7291C100 12.8471 99.4087 12.0743 98.5565 11.8439ZM80.3421 64.4547V55.8914L83.3031 53.1387L86.2648 55.8914V64.4547H80.3421ZM70.5124 64.4547V55.8914L73.4741 53.1387L76.4359 55.8914V64.4547H70.5124ZM60.6834 64.4547V55.8914L63.6452 53.1387L66.6069 55.8914V64.4547H60.6834ZM51.6724 64.4547V61.2312C51.7586 61.1954 51.8425 61.1534 51.9249 61.1053C53.5728 60.128 55.2048 59.0393 56.7772 57.9094V64.4547H51.6724ZM37.5954 77.7527V68.1297C37.5954 67.0509 36.721 66.1766 35.6422 66.1766H24.8436C23.7648 66.1766 22.8905 67.0509 22.8905 68.1297V77.7527H12.7197V55.7152L30.2429 42.8429L47.7661 55.7159L47.7669 77.7534H37.5954V77.7527ZM33.6891 77.7527H26.7967V70.0829H33.6891V77.7527ZM50.8926 53.1654L50.8781 53.1548C50.8774 53.154 50.8766 53.1532 50.8759 53.1525L31.3988 38.8458C31.3454 38.8062 31.2897 38.7695 31.2332 38.736C30.9395 38.5628 30.6107 38.4735 30.2803 38.4666C30.2681 38.4666 30.2551 38.4666 30.2429 38.4666C30.2299 38.4666 30.217 38.4666 30.2048 38.4666C29.8744 38.4735 29.5456 38.5628 29.2519 38.736C29.1954 38.7695 29.1397 38.8062 29.0863 38.8458L9.59244 53.1654V48.9616L30.2429 33.7921L50.8926 48.9616V53.1654ZM15.4602 39.8048L12.9829 41.6245V37.4306H15.4602V39.8048ZM96.0938 50.5577L94.4618 49.0417C93.7126 48.3444 92.5522 48.3452 91.803 49.0417L88.2179 52.3735L84.6329 49.0417C83.8837 48.3444 82.7232 48.3444 81.974 49.0417L78.389 52.3735L74.8039 49.0417C74.0547 48.3444 72.8943 48.3444 72.1451 49.0417L68.56 52.3735L66.246 50.2228C67.1547 49.4125 67.9474 48.69 68.5959 48.0988C68.9087 47.8134 69.1841 47.5616 69.4206 47.3488C76.3733 41.0751 82.9514 35.141 96.0945 34.8564V50.5577H96.0938ZM90.1711 55.8914L93.132 53.1387L96.0938 55.8914V64.4547H90.1711V55.8914ZM3.90625 34.8366C9.79538 30.0797 15.5769 25.7378 26.2794 25.7378C36.7149 25.7378 42.3546 29.8553 47.2374 34.0729C47.8661 34.6161 48.7701 34.7023 49.4904 34.2873C53.6018 31.9153 56.9565 28.8879 60.2013 25.9605C66.983 19.8425 73.3894 14.0633 86.3831 14.0633C89.6675 14.0633 92.717 14.431 96.0938 15.2451V30.9494C89.6538 31.0814 84.0103 32.5012 78.8681 35.2798C74.1241 37.8433 70.4025 41.201 66.803 44.4489C66.5627 44.6655 66.2819 44.9219 65.963 45.2118C63.6589 47.3137 59.491 51.1147 54.7989 54.5197V47.9729C54.7989 47.3518 54.5036 46.7674 54.0024 46.3989L31.3988 29.7951C30.7106 29.2892 29.7745 29.2892 29.0863 29.7951L19.3665 36.9347V35.4774C19.3665 34.3987 18.4921 33.5243 17.4133 33.5243H11.0298C9.95102 33.5243 9.07669 34.3987 9.07669 35.4774V44.4946L6.48346 46.3989C5.98221 46.7674 5.68619 47.3518 5.68619 47.9729V57.0236C5.68619 57.7599 6.10046 58.4335 6.75735 58.7662C7.03583 58.9073 7.33795 58.9767 7.63931 58.9767C8.04749 58.9767 8.45413 58.8486 8.79593 58.5976L8.81271 58.5854V64.4547H3.90625V34.8366ZM96.0938 85.9383H3.90625V68.3601H8.81348V79.7058C8.81348 80.7846 9.68781 81.6589 10.7666 81.6589H77.906C78.9848 81.6589 79.8592 80.7846 79.8592 79.7058C79.8592 78.627 78.9848 77.7527 77.906 77.7527H51.6731L51.6724 68.3601H96.0938V85.9383Z" fill="black"/>
</svg>

<svg width="100" height="100" fill="none" xmlns="http://www.w3.org/2000/svg"><path d="M30.243 63.31c-4.11 0-7.452-3.344-7.452-7.453s3.343-7.452 7.452-7.452c4.11 0 7.452 3.343 7.452 7.452 0 4.11-3.343 7.453-7.452 7.453Zm0-10.999a3.55 3.55 0 0 0-3.546 3.546 3.55 3.55 0 0 0 3.546 3.546 3.55 3.55 0 0 0 3.546-3.546 3.55 3.55 0 0 0-3.546-3.546ZM85.696 81.659a1.947 1.947 0 0 1-1.915-1.571 1.898 1.898 0 0 1 .112-1.128 1.994 1.994 0 0 1 .422-.635 1.904 1.904 0 0 1 .635-.422 1.958 1.958 0 0 1 1.128-.111 2.002 2.002 0 0 1 .7.29c.108.07.209.153.298.243a1.941 1.941 0 0 1 .536 1 1.94 1.94 0 0 1-.112 1.128 1.92 1.92 0 0 1-.18.336 1.916 1.916 0 0 1-.877.721 1.956 1.956 0 0 1-.748.149Z" fill="#000"/><path d="M98.556 11.844c-4.314-1.167-8.068-1.688-12.173-1.688-14.496 0-21.767 6.56-28.798 12.904-2.894 2.61-5.644 5.092-8.877 7.136-5.033-4.203-11.454-8.365-22.429-8.365-12.524 0-19.149 5.366-25.555 10.556-.458.37-.724.928-.724 1.518v53.986c0 1.08.874 1.953 1.953 1.953h96.094A1.953 1.953 0 0 0 100 87.891V13.73c0-.882-.591-1.655-1.444-1.885Zm-18.214 52.61v-8.563l2.961-2.752 2.962 2.752v8.564h-5.923Zm-9.83 0v-8.563l2.962-2.752 2.962 2.752v8.564h-5.924Zm-9.829 0v-8.563l2.962-2.752 2.962 2.752v8.564h-5.924Zm-9.01 0v-3.223c.086-.036.17-.078.252-.126a66.628 66.628 0 0 0 4.852-3.196v6.546h-5.105ZM37.594 77.754V68.13a1.953 1.953 0 0 0-1.953-1.953H24.844a1.953 1.953 0 0 0-1.954 1.953v9.623H12.72V55.715l17.523-12.872 17.523 12.873v22.037h-10.17Zm-3.906 0h-6.892v-7.67h6.892v7.67Zm17.204-24.588-.015-.01-.002-.002-19.477-14.307a1.937 1.937 0 0 0-1.119-.38h-.075a1.954 1.954 0 0 0-1.119.38L9.592 53.166v-4.204l20.65-15.17 20.65 15.17v4.203ZM15.46 39.805l-2.477 1.82V37.43h2.477v2.374Zm80.634 10.753-1.632-1.516a1.952 1.952 0 0 0-2.659 0l-3.585 3.331-3.585-3.331a1.951 1.951 0 0 0-2.659 0l-3.585 3.331-3.585-3.331a1.951 1.951 0 0 0-2.659 0l-3.585 3.331-2.314-2.15c.909-.81 1.701-1.533 2.35-2.124.313-.286.588-.537.825-.75 6.952-6.274 13.53-12.208 26.673-12.493v15.702ZM90.17 55.89l2.961-2.752 2.962 2.752v8.564H90.17V55.89ZM3.906 34.837c5.89-4.757 11.67-9.1 22.373-9.1 10.436 0 16.076 4.118 20.958 8.336.63.543 1.533.63 2.253.214 4.112-2.372 7.466-5.4 10.711-8.326 6.782-6.118 13.188-11.898 26.182-11.898 3.285 0 6.334.368 9.71 1.182V30.95c-6.44.132-12.083 1.552-17.225 4.33-4.744 2.564-8.465 5.922-12.065 9.17l-.84.763c-2.304 2.102-6.472 5.903-11.164 9.308v-6.547c0-.621-.295-1.206-.797-1.574L31.4 29.795a1.951 1.951 0 0 0-2.313 0l-9.72 7.14v-1.458a1.953 1.953 0 0 0-1.953-1.953H11.03a1.953 1.953 0 0 0-1.953 1.953v9.018l-2.594 1.904a1.954 1.954 0 0 0-.797 1.574v9.05a1.954 1.954 0 0 0 3.11 1.575l.017-.013v5.87H3.906V34.837Zm92.188 51.101H3.906V68.36h4.907v11.346c0 1.079.875 1.953 1.954 1.953h67.139a1.953 1.953 0 1 0 0-3.906H51.673V68.36h44.42v17.578Z" fill="#000"/></svg>
